X:52
T:Saint Anne's
M:4/4
L:1/8
R:reel
K:Dmaj
|:fedf edcB|A2FA DAFA|B2GB EBGB|A2FA DAFA|
fedf edcB|A2FA DAFA|BGed cABc|eddc d2 de:|
|:f2fg fedf|gfgf g2gf|edcB ABce|baa^g abag|
f2fg fedf|gfgf g2gf|edcB ABcd|eddc d2 de:|
